X:606
T:Oot Be Est da Vong
S:Session, Crieff Dec 2003
Z:Nigel Gatherer
L:1/8
M:4/4
K:D
z2 | AFAB  ABde  | f2 ed ed B2 | AFAB  ABde  | f2 ed d2 :|
ef | g2 ge f2 fd | edef  ed B2 | g2 ge f2 fd | edef  a4  |
     g2 ge f2 fd | edef  ed B2 | AFAB  ABde  | f2 ed d2 |]
<end>
<start>
